X:25
T:Darby Gallagher’s
D:Paddy Glackin: Rabharta Ceoil (In Full Spate) (1991)
Z:Gwen, 2019-01-29
R:Jig
M:6/8
Q:3/8=130
K:Amix
|: cBA ecA | fed cBA | def gfg | BBB Bed |
   cBA ecA | fed cBA | c2A BA^G |1 ABA Aed :|2 ABA Afg |
|: agf gfe | fed ecA | def gfg | BBB Bfg |
   agf gfe | fed ecA | c2A BA^G |1 ABA Afg :|2 ABA Aed |
%
|: cBA ecA | fed cBA | def gfg | BBB Bed |
   cBA ecA | fed cBA | c2A BA^G |1 ABA Aed :|2 ABA Afg |
|: agf gfe | fed ecA | def gfg | BBB Bfg |
   agf gfe | fed ecA | c2A BA^G |1 ABA Afg :|2 ABA Aed |
%
|: cBA ecA | fed cBA | def gfg | BBB Bed |
   cBA ecA | fed cBA | c2A BA^G |1 ABA Aed :|2 ABA Afg |
|: agf gfe | fed ecA | def gfg | BBB Bfg |
   agf gfe | fed ecA | c2A BA^G |1 ABA Afg :|2 ABA Aed |

